X:1
T:A Shropshire Lad
T:When I was one-and-twenty
T:A Shropshire Lad
T:2. When I was one-and-twenty
T:Arthur Somervell
T:A. E. Housman
T:Creative Commons copyright waiver (CC0 1.0 Universal)
T:Creative Commons copyright waiver (CC0 1.0 Universal)
T:Creative Commons copyright waiver (CC0 1.0 Universal)
C:Arthur Somervell
Z:A. E. Housman
Z:Creative Commons copyright waiver (CC0 1.0 Universal)
L:1/8
Q:1/4=116
M:2/4
K:B
V:1 treble nm="Voice"
V:1
"^Allegretto scherzando" z4 | z4 | z4 | z2 z!p! F | B3/2 F/ F E | D F2 B, | C3/2 C/ E D | F3 F | %8
w: |||When|I was one- and-|twen- ty I|heard a wise man|say 'Give|
 B3/2 F/ F3/2 E/ | D F2 B, | C C E3/2 F/ | B,2 z z | z4 | z4 | z4 | z4 | z4 | z4 | z4 | z4 | z4 | %21
w: crowns and pounds and|gui- neas But|not your heart a-|way;||||||||||
 z4 | z4 | z4 | z4 | z4 | z4 | z4 | z4 | z4 | z4 | z4 | z4 | z4 | z4 | z4 | z4 | z4 | z4 | z4 | %40
w: |||||||||||||||||||
 z4 | z4 | z4 | z4 |] %44
w: ||||

